.local/share/icons/Gruvbox-Plus-Dark/apps/16/mixcloud.svg

<svg width="16" height="16" version="1.1" xmlns="http://www.w3.org/2000/svg">
  <defs>
    <style id="current-color-scheme" type="text/css">.ColorScheme-Text { color:#ebdbb2; } .ColorScheme-Highlight { color:#458588; }</style>
  </defs>
  <path class="ColorScheme-Text" d="m8.382 6.365c-0.169-0.105-0.289-0.273-0.335-0.468-0.042-0.192-9e-3 -0.397 0.096-0.564 0.107-0.17 0.275-0.291 0.467-0.333 0.195-0.045 0.397-0.012 0.568 0.092 0.112 0.073 0.219 0.153 0.319 0.241 0.228 0.195 0.431 0.414 0.608 0.655 0.255 0.35 0.458 0.734 0.6 1.145 0.18 0.527 0.27 1.08 0.265 1.637 5e-3 0.558-0.088 1.112-0.273 1.637-0.144 0.408-0.354 0.788-0.619 1.131-0.183 0.234-0.393 0.45-0.625 0.637-0.106 0.085-0.215 0.16-0.331 0.228-0.172 0.097-0.377 0.122-0.569 0.069-0.193-0.052-0.356-0.177-0.456-0.35-0.097-0.172-0.122-0.377-0.069-0.569 0.052-0.193 0.177-0.356 0.35-0.456 0.044-0.025 0.09-0.054 0.129-0.087 0.143-0.115 0.273-0.245 0.386-0.39 0.167-0.217 0.3-0.457 0.392-0.715 0.128-0.365 0.19-0.748 0.185-1.135 5e-3 -0.39-0.057-0.78-0.185-1.153-0.092-0.264-0.222-0.514-0.39-0.742-0.11-0.153-0.24-0.29-0.382-0.412-0.041-0.035-0.085-0.068-0.131-0.098zm-0.382-3.865c-2.071 0-3.835 1.268-4.594 3.062-1.928 0.287-3.406 1.931-3.406 3.938 0 2.209 1.791 4 4 4h8.5c1.933 0 3.5-1.567 3.5-3.5 0-1.796-1.351-3.269-3.094-3.469-0.454-2.293-2.479-4.031-4.906-4.031zm-2 8.957c-0.187 0.065-0.392 0.056-0.572-0.029s-0.318-0.24-0.386-0.428c-0.064-0.187-0.054-0.393 0.031-0.572 0.085-0.181 0.24-0.318 0.427-0.385 0.05-0.018 0.098-0.038 0.145-0.063 0.138-0.067 0.265-0.15 0.383-0.248 0.135-0.107 0.247-0.239 0.335-0.389 0.09-0.168 0.137-0.355 0.137-0.548v-5e-3c0-0.2-0.047-0.397-0.142-0.572-0.091-0.161-0.208-0.305-0.348-0.426-0.123-0.104-0.252-0.197-0.393-0.275-0.05-0.027-0.1-0.052-0.15-0.072-0.184-0.075-0.332-0.223-0.409-0.405-0.075-0.182-0.078-0.39-3e-3 -0.573 0.075-0.184 0.223-0.332 0.405-0.409 0.182-0.075 0.39-0.078 0.573-3e-3 0.109 0.045 0.217 0.098 0.32 0.155 0.227 0.128 0.442 0.278 0.637 0.448 0.277 0.237 0.508 0.522 0.682 0.839 0.215 0.398 0.328 0.843 0.328 1.293 3e-3 0.45-0.113 0.895-0.33 1.288-0.18 0.315-0.415 0.592-0.697 0.819-0.2 0.166-0.418 0.306-0.65 0.421-0.103 0.054-0.213 0.1-0.323 0.139z" fill="currentColor"/>
</svg>

<svg xmlns="http://www.w3.org/2000/svg" style="isolation:isolate" width="16" height="16" viewBox="0 0 16 16">
 <defs>
  <style id="current-color-scheme" type="text/css">
   .ColorScheme-Text { color:#ebdbb2; } .ColorScheme-Highlight { color:#458588; }
  </style>
  <linearGradient id="arrongin" x1="0%" x2="0%" y1="0%" y2="100%">
   <stop offset="0%" style="stop-color:#d79921; stop-opacity:1"/>
   <stop offset="100%" style="stop-color:#b57614; stop-opacity:1"/>
  </linearGradient>
  <linearGradient id="aurora" x1="0%" x2="0%" y1="0%" y2="100%">
   <stop offset="0%" style="stop-color:#83a598; stop-opacity:1"/>
   <stop offset="100%" style="stop-color:#b16286; stop-opacity:1"/>
  </linearGradient>
  <linearGradient id="fitdance" x1="0%" x2="0%" y1="0%" y2="100%">
   <stop offset="0%" style="stop-color:#8ec07c; stop-opacity:1"/>
   <stop offset="100%" style="stop-color:#458588; stop-opacity:1"/>
  </linearGradient>
  <linearGradient id="oomox" x1="0%" x2="0%" y1="0%" y2="100%">
   <stop offset="0%" style="stop-color:#458588; stop-opacity:1"/>
   <stop offset="100%" style="stop-color:#928374; stop-opacity:1"/>
  </linearGradient>
  <linearGradient id="rainblue" x1="0%" x2="0%" y1="0%" y2="100%">
   <stop offset="0%" style="stop-color:#b8bb26; stop-opacity:1"/>
   <stop offset="100%" style="stop-color:#076678; stop-opacity:1"/>
  </linearGradient>
  <linearGradient id="sunrise" x1="0%" x2="0%" y1="0%" y2="100%">
   <stop offset="0%" style="stop-color: #fe8019; stop-opacity:1"/>
   <stop offset="100%" style="stop-color: #fabd2f; stop-opacity:1"/>
  </linearGradient>
  <linearGradient id="telinkrin" x1="0%" x2="0%" y1="0%" y2="100%">
   <stop offset="0%" style="stop-color: #83a598; stop-opacity:1"/>
   <stop offset="100%" style="stop-color: #83a598; stop-opacity:1"/>
  </linearGradient>
  <linearGradient id="60spsycho" x1="0%" x2="0%" y1="0%" y2="100%">
   <stop offset="0%" style="stop-color: #fb4934; stop-opacity:1"/>
   <stop offset="25%" style="stop-color: #fabd2f; stop-opacity:1"/>
   <stop offset="50%" style="stop-color: #fe8019; stop-opacity:1"/>
   <stop offset="100%" style="stop-color: #689d6a; stop-opacity:1"/>
  </linearGradient>
  <linearGradient id="90ssummer" x1="0%" x2="0%" y1="0%" y2="100%">
   <stop offset="0%" style="stop-color: #b16286; stop-opacity:1"/>
   <stop offset="20%" style="stop-color: #8ec07c; stop-opacity:1"/>
   <stop offset="50%" style="stop-color: #fabd2f; stop-opacity:1"/>
   <stop offset="100%" style="stop-color: #458588; stop-opacity:1"/>
  </linearGradient>
  <linearGradient id="cyberneon" x1="0%" x2="0%" y1="0%" y2="100%">
    <stop offset="0" style="stop-color:#83a598; stop-opacity:1"/>
    <stop offset="1" style="stop-color:#b16286; stop-opacity:1"/>
  </linearGradient>
 </defs>
 <path style="fill:currentColor" class="ColorScheme-Text" fill-rule="evenodd" d="M 8.382 6.365 C 8.213 6.26 8.093 6.092 8.047 5.897 C 8.005 5.705 8.038 5.5 8.143 5.333 C 8.25 5.163 8.418 5.042 8.61 5 C 8.805 4.955 9.007 4.988 9.178 5.092 C 9.29 5.165 9.397 5.245 9.497 5.333 C 9.725 5.528 9.928 5.747 10.105 5.988 C 10.36 6.338 10.563 6.722 10.705 7.133 C 10.885 7.66 10.975 8.213 10.97 8.77 C 10.975 9.328 10.882 9.882 10.697 10.407 C 10.553 10.815 10.343 11.195 10.078 11.538 C 9.895 11.772 9.685 11.988 9.453 12.175 C 9.347 12.26 9.238 12.335 9.122 12.403 C 8.95 12.5 8.745 12.525 8.553 12.472 C 8.36 12.42 8.197 12.295 8.097 12.122 C 8 11.95 7.975 11.745 8.028 11.553 C 8.08 11.36 8.205 11.197 8.378 11.097 C 8.422 11.072 8.468 11.043 8.507 11.01 C 8.65 10.895 8.78 10.765 8.893 10.62 C 9.06 10.403 9.193 10.163 9.285 9.905 C 9.413 9.54 9.475 9.157 9.47 8.77 C 9.475 8.38 9.413 7.99 9.285 7.617 C 9.193 7.353 9.063 7.103 8.895 6.875 C 8.785 6.722 8.655 6.585 8.513 6.463 C 8.472 6.428 8.428 6.395 8.382 6.365 L 8.382 6.365 L 8.382 6.365 Z M 8 2.5 C 5.929 2.5 4.165 3.768 3.406 5.562 C 1.478 5.849 0 7.493 0 9.5 C 0 11.709 1.791 13.5 4 13.5 L 12.5 13.5 C 14.433 13.5 16 11.933 16 10 C 16 8.204 14.649 6.731 12.906 6.531 C 12.452 4.238 10.427 2.5 8 2.5 L 8 2.5 L 8 2.5 Z M 6 11.457 C 5.813 11.522 5.608 11.513 5.428 11.428 C 5.248 11.343 5.11 11.188 5.042 11 C 4.978 10.813 4.988 10.607 5.073 10.428 C 5.158 10.247 5.313 10.11 5.5 10.043 C 5.55 10.025 5.598 10.005 5.645 9.98 C 5.783 9.913 5.91 9.83 6.028 9.732 C 6.163 9.625 6.275 9.493 6.363 9.343 C 6.453 9.175 6.5 8.988 6.5 8.795 C 6.5 8.793 6.5 8.793 6.5 8.79 L 6.5 8.79 C 6.5 8.79 6.5 8.79 6.5 8.79 C 6.5 8.59 6.453 8.393 6.358 8.218 C 6.267 8.057 6.15 7.913 6.01 7.792 C 5.887 7.688 5.758 7.595 5.617 7.517 C 5.567 7.49 5.517 7.465 5.467 7.445 C 5.283 7.37 5.135 7.222 5.058 7.04 C 4.983 6.858 4.98 6.65 5.055 6.467 C 5.13 6.283 5.278 6.135 5.46 6.058 C 5.642 5.983 5.85 5.98 6.033 6.055 C 6.142 6.1 6.25 6.153 6.353 6.21 C 6.58 6.338 6.795 6.488 6.99 6.658 C 7.267 6.895 7.498 7.18 7.672 7.497 C 7.887 7.895 8 8.34 8 8.79 C 8.003 9.24 7.887 9.685 7.67 10.078 C 7.49 10.393 7.255 10.67 6.973 10.897 C 6.773 11.063 6.555 11.203 6.323 11.318 C 6.22 11.372 6.11 11.418 6 11.457 L 6 11.457 Z"/>
</svg>
